X: 385
T: Bir Katre İçen
C: Şevki Bey
O: Turkey
F: http://compmusic.upf.edu/node/140
N: beyati--sarki--agiraksak--bir_katre--sevki_bey
N: makam= beyati
N: form= sarki
N: usul= agiraksak = 9/4
M: 9/4
L: 1/16
K: C _2/4B   
Q: 1/4=78
%%MIDI tuningsystem comma53
z8 A8 f3e d2e2 f2g2 f2e2 d2a2  | g2f2 e2d2 d4 e2d2 ^c8 d8 =c2B2  | 
w:  Bir  kat  |  *  *  *  *  re  i *  çen   | 
z2g4^3/4f2 f3e d2e2 ^c8 d12  | z2e4g2 f3e d4 z2d4f2 e3d c2B2 c4  | 
w:  çeş *  me  *  i  *  pür   |  hû  *  *  *  *  hû   | 
z4 d2_7/8e2 d4 g4 g3^f e2f2 e3d d4 d2=e2  | \
w:  hûn_ *  *  i  fe *  *  *  nâ  | 
c4 d4 d2g2 f2e2 d2c2 B2c2 d2e2 f2e2 a2gf  | 
w:  dan   *  SAZ  | 
f8 z2gf e2g2 f8 c2f2 e2f2 e2f2  | \
w:  *  Bâ *  *  *  şın   | 
g2ag f2e2 e2d2 d2e2 d3c B2d2 c2d2 c4 B4  | 
w:  *  *  *  *  *  *  *  a la maz   | 
z2a2 g2^f2 f3_7/8e e3d d8 G2A2 B2c2 d4  | \
w:  bir  *  *  da *  hî  *  bâ SAZ  | 
z2c4e2 d3c d4 z2B4d2 c3B B2A2 A4  | 
w:  râ  *  *  *  *  râ   | 
A2G2 B2c2 d2e2 d2c2 c2BA B2c2 B4 A4 A2B2  | \
w:  *  *  rân_ *  *  *  ı  *  be *  *  *  *  lâ  | 
G4 A8 ^3/4f2g2 a2g2 f2g2 a6g2 c'2ba  | 
w:  dan   *  SAZ  | 
a8 z2g4a2 a16-a4  | _b3a g4 g4 g4 g2^fg a2g2 f2_7/8e2 e2d2 d4  | 
w:  *  Â *  sû  |  *  *  *  de  o lan   | 
z2a2 g2^f2 f2_7/8e2 e2d2 d8 G3A B2c2 d4  | \
w:  der *  *  sen  *  e *  ğer  SAZ  | 
z2e4g2 f3e d4 z2d4f2 e3d c2B2 c4  | 
w:  gel  *  *  *  *  gel   | 
z4 d2_7/8e2 d4 g4 g3^f e2f2 e3d d4 d2=e2  | \
w:  gel *  *  me  ci *  *  *  hâ  | 
c4 d4 d2g2 f2e2 d2c2 B2c2 d2e2 f2e2 a2gf  | 
w:  ne   *  SAZ  | 
f8 z2gf e2g2 f8 c2f2 e2f2 e2f2  | \
w:  *  Mey *  *  *  dâ  | 
g2ag f2e2 e2d2 d2e2 d3c B2d2 c2d2 c4 B4  | 
w:  *  *  *  *  *  *  *  ne  dü şen   | 
z2a2 g2^f2 f3_7/8e e3d d8 G2A2 B2c2 d4  | \
w:  kur *  *  tu *  la *  maz  SAZ  | 
z2c4e2 d3c d4 z2B4d2 c3B B2A2 A4  | 
w:  sen  *  *  *  *  sen   | 
A2G2 B2c2 d2e2 d2c2 c2BA B2c2 B4 A4 A2B2  | \
w:  *  *  seng_ *  *  *  i  *  ka *  *  *  *  zâ  | 
G4 A4 A2G2 d2c2 c2B2 B2A2 AGAB cBce d4  | 
w:  dan   *  SAZ  | 
z18  | z2 d2 c2 B2 A2 G2 d6  | z2 d4 ef ed d^c d6  | \
w:  |  Bî *  *  baht   |  o la *  nın   | 
z2 e2 ^f2 g2 =f3e d6  | 
w:  bâ *  ğı na  *  bir   | 
z2 d2 c2 B2 g4 f3e d2  | e3d ^c4 d4 dc _1/4B^A B2  | \
w:  kat *  re si  düş  |  mez   | 
z2 d2 ^c2 d2 c2 d2 e2 ^f2 g2  | 
w:  mez    | 
z2 g2 f2 e2 fe d^c dc _1/4B^A B2  | \
w:  Bâ *  *  rân   | 
z2 ^cd e2 dc dc _1/4B^A B2 c2 d2  | 
w:  ye *  *  ri *  ne   | 
z2 d4 ef ed cd e6  | z2 e2 ^3/4f2 g2 f2 ed e2 f2 a2  | \
w:  dürr_ ü  *  gü *  *  *  her   |  yağ *  sa  se *  *  mâ  | 
g8 g2 ^3/4f2 ag fe d2  | 
w:  dan   | 
z2 e^3/4f g2 ag ^f2 ed e2 ^3/4f2 ed  | \
w:  yağ *  *  sa  *  se *  *  mâ  | 
d6 cB AG ^3/4FE D6  | 
w:  dan   SAZ  | 
z36  | f8 z2gf e2g2 f8 c2f2 e2f2 e2f2  | \
w:  |  *  Bâ *  *  *  şın   | 
g2ag f2e2 e2d2 d2e2 d3c B2d2 c2d2 c4 B4  | 
w:  *  *  *  *  *  *  *  a la maz   | 
z2a2 g2^f2 f3_7/8e e3d d8 G2A2 B2c2 d4  | \
w:  bir  *  *  da *  hî  *  bâ SAZ  | 
z2c4e2 d3c d4 z2B4d2 c3B B2A2 A4  | 
w:  râ  *  *  *  *  râ   | 
A2G2 B2c2 d2e2 d2c2 c2BA B2c2 B4 A4 A2B2  | \
w:  *  *  rân_ *  *  *  ı  *  be *  *  *  *  lâ  | 
G4 A8 |
w:  dan    | 


